plugins/maven/src/main/resources/images/mavenPlugin.svg

<svg xmlns="http://www.w3.org/2000/svg" width="16" height="16" viewBox="0 0 16 16">
  <g fill="none" fill-rule="evenodd">
    <path fill="#9AA7B0" fill-opacity=".8" d="M6,15.0002 C3.6,15.0002 1,12.7332 1,10.0002 L1,8.0002 C1,6.0792 1.9,4.0002 3,4.0002 L3,6.0002 C2.566,6.0002 2,6.5792 2,8.0002 L2,10.0002 C1.978,11.8222 4.111,14.0002 6,14.0002 L6,15.0002 Z M3,5.9902 L3,5.5062 L3,4.4942 L3,4.0102 C3,3.6872 3.181,3.3912 3.467,3.2462 L3.779,3.0892 C4.022,2.9662 4.281,2.9782 4.5,3.0792 L4.5,4.4942 L4.5,5.5062 L4.5,6.9212 C4.281,7.0212 4.022,7.0342 3.779,6.9112 L3.467,6.7542 C3.181,6.6082 3,6.3122 3,5.9902 Z M7.137,1.0002 L11,1.0002 L11,8.5002 L11,9.0002 L9.5,9.0002 L7.137,9.0002 C5.957,9.0002 5,7.9242 5,6.5962 L5,3.4032 C5,2.0762 5.957,1.0002 7.137,1.0002 Z M11.5,8.0002 L11.5,7.0002 L15,7.0002 L15,8.0002 L11.5,8.0002 Z M11.5,3.0002 L11.5,2.0002 L15,2.0002 L15,3.0002 L11.5,3.0002 Z"/>
    <path fill="#40B6E0" d="M7.89679817,10.016009 L6.7,15.9955594 L8.343037,15.9955594 L9.0898725,11.9915814 C9.0898725,11.9915814 9.73712963,11.4269178 10.2350197,11.4782509 C10.7329098,11.5295839 10.7329098,12.047355 10.7329098,12.047355 L10.0358637,16 L11.6796552,16 L12.4755252,11.9915814 C12.4755252,11.9915814 13.0232043,11.4269178 13.5708834,11.4782509 C14.1185625,11.5295839 14.0189845,12.0986881 14.0189845,12.0986881 L13.2721494,15.9955594 L14.9649757,15.9955594 L15.8113889,11.4313584 C15.9109669,10.7082551 15.4841627,10.0824977 14.9151867,10.016009 C14.3462108,9.94952024 13.7700395,10.0922585 13.2721494,10.4046974 C12.7742593,10.7171363 12.4755252,11.1233601 12.4755252,11.1233601 C12.4755252,11.1233601 12.2185696,10.0824977 11.429956,10.016009 C10.6413423,9.94952024 10.2848087,10.1435915 9.93628567,10.3489237 C9.5877626,10.5542559 9.38860656,10.8153618 9.38860656,10.8153618 L9.52577354,10.016009 L7.89679817,10.016009 Z"/>
  </g>
</svg>

<svg xmlns="http://www.w3.org/2000/svg" viewBox="0 0 16 16">
  <path d="M6,15a5.28,5.28,0,0,1-5-5V8c0-1.92.9-4,2-4V6c-.43,0-1,.58-1,2v2a4.55,4.55,0,0,0,4,4ZM3,6V4a.84.84,0,0,1,.47-.76l.31-.16a.83.83,0,0,1,.72,0V6.92a.83.83,0,0,1-.72,0l-.31-.16A.84.84,0,0,1,3,6ZM7.14,1H11V9H7.14A2.29,2.29,0,0,1,5,6.6V3.4A2.29,2.29,0,0,1,7.14,1ZM11.5,8V7H15V8Zm0-5V2H15V3Z" fill="#9aa7b0" fill-opacity="0.8" fill-rule="evenodd"/>
  <path d="M6.7,16H8.34l.79-4.06a2.07,2.07,0,0,1,1.09-.55c.36,0,.54.24.48.61L10,16h1.69l.73-4a2.1,2.1,0,0,1,1.15-.55.47.47,0,0,1,.51.43h0a.54.54,0,0,1,0,.18L13.31,16H15l.85-4.61A1.17,1.17,0,0,0,15,10a1.15,1.15,0,0,0-.37,0,3.31,3.31,0,0,0-2.13,1,1,1,0,0,0-1-1h-.15a3.24,3.24,0,0,0-2.12,1v-.84H7.85Z" fill="#40b6e0"/>
</svg>
